X:1
T:Title
%%score 1 2 { 3 | ( 4 5 ) }
L:1/8
Q:1/4=120
M:2/4
K:G
V:1 treble nm="MusicXML Part"
V:2 treble-8 nm="MusicXML Part"
V:3 treble nm="MusicXML Part"
V:4 bass 
V:5 bass 
V:1
"^Langsam.""^Sopran." z4 |!p!"^Robert Schumann" G2 z2 | F2 G2 | %3
w: |Schlaf,|Kind- lein,|
"^Wiegenlied""^am Lager eines kranken Kindes.""^(Friedrich Hebbel)" E4 | z2 EE | %5
w: schlaf,|wie du|
 A2"^Vier Duette, Op.78. Nr.4." G2 | F2 G2 | E4 |!pp! e3 G | G2 d2 | e3 G | G2 G2 | g3 _e x4 | %13
w: schläfst, so|bist du|brav!|Drau- ßen|rot im|Mit- tags-|schei- ne|glüht der|
 _e2 =f2 x4 | g3 _B x4 | _B2 B2 x4 | A3 A x4 | d2 d2 x4 | e2 (d^c) x4 | d4 x4 | A3 A x4 | d3 d x4 | %22
w: schön- sten|Kir- schen|ei- ne,|wenn du|auf- wachst,|ge- hen *|wir|und mein|Fin- ger|
 e2 (d^c) x4 | d4 x4 | z4 x4 |!p! B2 z2 x4 | A2 B2 x4 | G4 x4 | z2 GG x4 | %29
w: pflückt sie *|dir!||Schlaf,|Kind- lein,|schlaf,|wie du|
"^zurückhaltend" c2 B2 x4 | A2 B2 x4 | !fermata!G4 ||"^im Tempo" z4 |!p! G2 z2 | F2 G2 | E4 | %36
w: schläfst, so|bist du|brav!||Schlaf,|Kind- lein,|schlaf,|
 z2 EE | A2 G2 | F2 G2 | E4 |!pp! e3 G | G2 d2 | e3 G | G2 G2 | g3 _e x4 | _e2 =f2 x4 | g3 _B x4 | %47
w: wie du|schläfst, so|bist du|brav!|Im- mer|sü- ßer|kocht die|Son- ne|dei- ne|Kir- sche,|dir zur|
 _B2 B2 x4 | A3 A x4 | d2 d2 x4 | e2 (d^c) x4 | d4 x4 | A3 A x4 | d3 d x4 | e2 (d^c) x4 | d4 x4 | %56
w: Won- ne,|schlaf denn|Kind- lein,|leicht be- *|deckt,|bis der|Durst nach|ihr dich *|weckt,|
 z4 x4 |!p! B2 z2 x4 | A2 B2 x4 | G4 x4 | z2 GG x4 |"^zurückhaltend" c2 B2 x4 | A2 B2 x4 | G4 | %64
w: |schlaf,|Kind- lein,|schlaf,|wie du|schläfst, so|bist du|brav!|
 z4 x4 | B4 | z4 x4 | !fermata!B4 |] %68
w: |Schlaf,||schlaf!|
V:2
"^Tenor." z4 |!p! B2 z2 | A2 B2 | G4 | z2 GG | c2 B2 | A2 B2 | G4 |!pp! c3 E | E2 G2 | c3 E | %11
w: |Schlaf,|Kind- lein,|schlaf,|wie du|schläfst, so|bist du|brav!|Drau- ßen|rot im|Mit- tags-|
 E2 E2 | _e3 G x4 | G2 _B2 x4 | _e3 G x4 | G2 G2 x4 | z4 x4 | A3 A x4 | G2 A2 x4 | F4 x4 | %20
w: schei- ne|glüht der|schön- sten|Kir- schen|ei- ne,||schlaf, mein|Kind- lein|schlaf,|
 A3 A x4 | A2 A2 x4 | G2 A2 x4 | F4 x4 | z4 x4 |!p! d2 z2 x4 | c2 d2 x4 | B4 x4 | z2 BB x4 | %29
w: wie du|schläfst, so|bist du|brav!||Schlaf,|Kind- lein,|schlaf,|wie du|
 e2 d2 x4 | c2 d2 x4 | !fermata!B4 || z4 |!p! B2 z2 | A2 B2 | G4 | z2 GG | c2 B2 | A2 B2 | G4 | %40
w: schläfst, so|bist du|brav!||Schlaf,|Kind- lein,|schlaf,|wie du|schläfst, so|bist du|brav!|
!pp! c3 E | E2 G2 | c3 E | E2 E2 | _e3 G x4 | G2 _B2 x4 | _e3 G x4 | G2 G2 x4 | z4 x4 | A3 A x4 | %50
w: Im- mer|sü- ßer|kocht die|Son- ne|dei- ne|Kir- sche,|dir zur|Won- ne,||schlaf, mein|
 G2 A2 x4 | F4 x4 | A3 A x4 | A2 A2 x4 | G2 A2 x4 | F4 x4 | z4 x4 |!p! d2 z2 x4 | c2 d2 x4 | %59
w: Kind- lein|schlaf,|wie du|schläfst, so|bist du|brav!||Schlaf,|Kind- lein,|
 B4 x4 | z2 BB x4 | e2 d2 x4 | c2 d2 x4 | B4 | z4 x4 | d4 | z4 x4 | !fermata!d4 |] %68
w: schlaf,|wie du|schläfst, so|bist du|brav!||Schlaf,||schlaf!|
V:3
!pp!"^Pianoforte." ([EG^A]c[GB]g) | ([EG^A]c[GB]g) | ([^DF^A]c[=AB]b) | ([EG^A]c[GB]g) | %4
 ([EG^A]c[GB]g) | ([=Ac]a[GB]g) | ([^DF^A]c[=AB]b) | ([EG^A]c[GB]g) | z4 | z4 | z4 | z4 | %12
 (3(G,_B,G (3G,B,G) x4 | (3(G,_B,G (3=F,B,=F) x4 | (3(G,_B,G (3G,B,G x4 | (3G,_B,G (3G,B,G) x4 | %16
 (3(z A,^C (3GAA,) x4 | (3z (A,D (3FAA,) x4 | (3(z A,^C (3EAA,) x4 | (3z (A,D (3FAA,) x4 | %20
 (3z (A,^C (3GAA,) x4 | (3z (A,D (3FAA,) x4 | (3(z A,^C (3EAA,) x4 | (3z (A,D (3FAA,) x4 | %24
 ([B^c]edd') x4 | ([B^c]edd') x4 |"^Y"(xe=dd') x4 | ([B^c]edd') x4 | ([B^c]edd') x4 | %29
"^zurückhaltend" (dd'dd') x4 |"^Y"(xe=dd') x4 | ([B^c]ed!fermata!d') || %32
!pp!"^im Tempo" ([EG^A]c[GB]g) | ([EG^A]c[GB]g) | ([^DF^A]c[=AB]b) | ([EG^A]c[GB]g) | %36
 ([EG^A]c[GB]g) | ([=Ac]a[GB]g) | ([^DF^A]c[=AB]b) | ([EG^A]c[GB]g) | z4 | z4 | z4 | z4 | %44
 (3(G,_B,G (3G,B,G) x4 | (3(G,_B,G (3=F,B,=F) x4 | (3(G,_B,G (3G,B,G x4 | (3G,_B,G (3G,B,G) x4 | %48
 (3z (A,^C (3GAA,) x4 | (3z (A,D (3FAA,) x4 | (3(z A,^C (3EAA,) x4 | (3z (A,D (3FAA,) x4 | %52
 (3z (A,^C (3GAA,) x4 | (3z (A,D (3FAA,) x4 | (3(z A,^C (3EAA,) x4 | (3z (A,D (3FAA,) x4 | %56
 ([B^c]edd') x4 | ([B^c]edd') x4 |"^Y"(xe=dd') x4 | ([B^c]edd') x4 | ([B^c]edd') x4 | %61
"^zurückhaltend" (dd'dd') x4 |"^Y"(xe=dd') x4 | ([B^c]edd') |!pp! [G=cg]4 x4 | ([GB^c]edd') | %66
!pp! [G=cg]4 x4 | ([GB^c]ed!fermata!d') |] %68
V:4
 E,2 B,B, | E,2 B,B, | B,,2 B,B, | E,2 B,B, | E,2 B,B, | E,2 E2 | B,,2 B,B, | E,2 B,B, | %8
!pp! (3(E,G,E (3E,G,E | %9
"^© 2009 by CPDL.\nThis edition can be fully distributed, duplicated, performed, and recorded.\nEdited by Christoph Lahme." (3E,G,E (3D,G,D) | %10
 (3(E,G,E (3E,G,E | (3E,G,E (3E,G,E) |!pp! (3(_E,,_B,,_E, (3E,,B,,E,) x4 | %13
 (3(_E,,_B,,_E, (3E,,B,,D,) x4 | (3(_E,,_B,,_E, (3E,,B,,E, x4 | (3_E,,_B,,_E, (3E,,B,,E,) x4 | %16
 ([=E,,=E,]4 x4 | [^F,,^F,]4) x4 | [A,,,A,,]4 x4 | [D,,D,]4 x4 | ([E,,E,]4 x4 | [F,,F,]4) x4 | %22
 [A,,,A,,]4 x4 | [D,,D,]4 x4 |!ped! G,,2 [D,G,B,D][D,G,B,D] x4 | G,,2 [D,G,B,D][D,G,B,D] x4 | %26
 G,,2 [D,F,CD][D,F,CD] x4 | G,,2 [D,G,B,D][D,G,B,D] x4 | G,,2 [D,G,B,D][D,G,B,D] x4 | %29
 [E,G,CD]2 [D,G,B,D]2 x4 | G,,2 [D,F,B,D][D,F,B,D] x4 | G,,2 [D,G,B,D]!fermata![D,G,B,D] || %32
 E,2 B,B, | E,2 B,B, | B,,2 B,B, | E,2 B,B, | E,2 B,B, | E,2 E2 | B,,2 B,B, | E,2 B,B, | %40
!pp! (3(E,G,E (3E,G,E | (3E,G,E (3D,G,D) | (3(E,G,E (3E,G,E | (3E,G,E (3E,G,E) | %44
!pp! (3(_E,,_B,,_E, (3E,,B,,E,) x4 | (3(_E,,_B,,_E, (3E,,B,,D,) x4 | (3(_E,,_B,,_E, (3E,,B,,E, x4 | %47
 (3_E,,_B,,_E, (3E,,B,,E,) x4 | [=E,,=E,]4 x4 | [^F,,^F,]4 x4 | [A,,,A,,]4 x4 | [D,,D,]4 x4 | %52
 ([E,,E,]4 x4 | [F,,F,]4) x4 | [A,,,A,,]4 x4 | [D,,D,]4 x4 |!ped! G,,2 [D,G,B,D][D,G,B,D] x4 | %57
 G,,2 [D,G,B,D][D,G,B,D] x4 | G,,2 [D,F,CD][D,F,CD] x4 | G,,2 [D,G,B,D][D,G,B,D] x4 | %60
 G,,2 [D,G,B,D][D,G,B,D] x4 | [E,G,CD]2 [D,G,B,D]2 x4 | G,,2 [D,F,B,D][D,F,B,D] x4 | %63
 G,,2 [D,G,B,D][D,G,B,D] | x8 | G,,2 [D,G,B,D][D,G,B,D] | x8 | G,,2 !fermata![D,B,]2 |] %68
V:5
 E,4 | E,4 | B,,4 | E,4 | E,4 | E,4 | B,,4 | E,4 | (3(C,,G,,C, (3C,,G,,C, | %9
 (3C,,G,,C, (3C,,G,,B,,) | (3(C,,G,,C, (3C,,G,,C, | (3C,,G,,C, (3C,,G,,C,) | x8 | x8 | x8 | x8 | %16
 x8 | x8 | x8 | x8 | x8 | x8 | x8 | x8 | x8 | x8 | x8 | x8 | x8 | x8 | x8 | !fermata!G,,4 || E,4 | %33
 E,4 | B,,4 | E,4 | E,4 | E,4 | B,,4 | E,4 | (3(C,,G,,C, (3C,,G,,C, | (3C,,G,,C, (3C,,G,,B,,) | %42
 (3(C,,G,,C, (3C,,G,,C, | (3C,,G,,C, (3C,,G,,C,) | x8 | x8 | x8 | x8 | x8 | x8 | x8 | x8 | x8 | %53
 x8 | x8 | x8 | x8 | x8 | x8 | x8 | x8 | x8 | x8 | G,,4 | x4 [CE]4 | G,,4 | x4 [CE]4 | %67
 !fermata!G,,4 |] %68

